X: 35575
T: Ryan's Rant
R: reel
M: 4/4
K: Gdorian
|:BGGA BGdc|BdGB AFFA|BGGA Bcde|fdcB AFFA:|
G3 A BGdc|BdGB cAFA|BGDG Bcde|fdcB AFFA|
BGGA BGdc|BdGB cAFA|BGDG Bcde|fdcB AFFA||
|:B2 fB gBfB|FB fB cAFA|B2 fB gBfB|c_edc BGGA|
B2 fB gBfB|FGAF CFAF|GBdg abag|fdcB AFFA:|
"variation on second part of A part"
|:G3 A BGdc|BdGB cAFA|BGDG Bcde|fdcB AFFA|
BGGA BGcG|dGcG AFFA|BGDG Bcde|fdcB AFFA||
"variation on B part"
|:B2 aB gBfB|FB ag fdGA|B2 aB gBfB|c_edc BGGA|
B2 aB gBfB|FGAF CFAF|GBdg abag|fdcB AFFA:|
"Final variation on B part"
|:B2 fB gBfB|FB fB cAFA|B2 fB gBfB|c_edc BGGA:|
B3 A Bcde|fdBd cAFA|B3 A Bcdf|ecBA BGGA|
B3 A Bcde|fdBd cAFA|GBdg abag|fdcB ACFA||G8||

